X:055
T:Belle Isle's March
M:4/4
L:1/8
K:G
D | GDGB AFAc | Bdge d3c | BdBG  AcAF | G>ABA G2 :|
Bc | d>edc B2B2 | c>dcB A2 A2 | d>edc B2B2 | cdec ADEF |
GDGB AFAc | Bdge d3c | BdBG AcAF | G>ABA G3 ||
